X: 1
T: LILLIBULLERO, or PROTESTANT BOYS' -- JIG
C: Edwin Christie
B: Ryan's Mammoth Collection of Fiddle Tunes
M: 6/8
L: 1/8
Z: Contributed 20000926194603 by John Chambers John.Chambers:weema.com
K: G
 (vA>.B)A c2c | (B>.c)B d2d | c"4"eA (d2c) | BAG "4"A3 \
| (A>.B)A c2c | (B>.c)B d2d | c"4"eA (d2c) | BAG "4"A3 :|
  (va2.e) (f2.e) | (a2.e) (f2.e) | efg agf | edc B2z \
| fed cd"4"e | "4"edc Bcd | "4"ecA (d2c) | BAG "4"A2 :]
